X: 0
T: jeg-saa-julemanden-kysse-mor
L: 1/4
M: 4/4
V: P1 name="SONG_004"
%%MIDI program 1 26
V: P2 name="SONG_004-2"
%%MIDI program 2 32
V: P3 name="SONG_004-3"
%%MIDI program 3 49
V: P4 name="SONG_004-4"
%%MIDI program 4 49
V: P5 name="SONG_004-5"
%%MIDI program 5 26
V: P6 name="SONG_004-6"
%%MIDI program 6 26
V: P7 name="SONG_004-7"
%%MIDI program 7 66
V: P8 name="SONG_004-8"
%%MIDI program 8 57
V: P9 name="SONG_004-9"
%%MIDI program 9 59
V: P10 name="SONG_004-10"
%%MIDI program 10 57
V: P11 name="SONG_004-11"
%%MIDI program 11 0
V: P12 name="SONG_004-12"
%%MIDI program 12 0
V: P13 name="SONG_004-13"
%%MIDI program 13 49
V: P14 name="Tempo Track"
%%MIDI program 14 -1
K: C
[V: P1]  z4 | [M: 4/4] z [G,/8C/8]E3/4-E/8z [G,/8C/8]E3/4-E/8 |z [G,/8C/8]E3/4-E/8z [G,/8C/8]E3/4-E/8 |z [G,/8C/8]E3/4-E/8z [G,/8C/8]E3/4-E/8 |z [G,/8C/8]E3/4-E/8z [G,/8C/8]E3/4-E/8 |z D/8F3/4-F/8z [A,/8D/8]F3/4-F/8 |z [D/8G/8]B3/4-B/8z [D/8G/8]B3/4-B/8 |z [G,/8C/8]E3/4-E/8z [G,/8C/8]E3/4-E/8 |z [E,/8A,/8]C3/4-C/8z [E,/8A,/8]C3/4-C/8 |z D/8F3/4-F/8z [A,/8D/8]F3/4-F/8 |z E/8^G3/4-G/8z [B,/8E/8]G3/4-G/8 |z [G,/8C/8]E3/4-E/8z [G,/8C/8]E3/4-E/8 |z [G,/8C/8]E3/4-E/8z [G,/8C/8]E3/4-E/8 |z E/8G3/4-G/8z [B,/8E/8]G3/4-G/8 |z F/8A3/4-A/8z F/8A3/4-A/8 |z [A,/8D/8]^F3/4-F/8z [A,/8D/8]F3/4-F/8 |z [A,/8D/8]^F3/4-F/8z [A,/8D/8]F3/4-F/8 |z [A,/8D/8]F3/4-F/8z [A,/8D/8]F3/4-F/8 |z [D/8G/8]B3/4-B/8z [D/8G/8]B3/4-B/8 |z [G,/8C/8]E3/4-E/8z [G,/8C/8]E3/4-E/8 |z [G,/8C/8]E3/4-E/8z [G,/8C/8]E3/4-E/8 |z E/8G3/4-G/8z [B,/8E/8]G3/4-G/8 |z [G,/8C/8]E3/4-E/8z [G,/8C/8]E3/4-E/8 |z [G,/8C/8]E3/4-E/8z [G,/8C/8]E3/4-E/8 |z [G,/8C/8]E3/4-E/8z [G,/8C/8]E3/4-E/8 |z [D/8G/8]B3/4-B/8z [F/8G/8]B3/4-B/8 |z [F/8G/8]B3/4-B/8z [F/8G/8]B3/4-B/8 |z [F/8G/8]B3/4-B/8z [F/8G/8]B3/4-B/8 |z [F/8G/8]B3/4-B/8z [F/8G/8]B3/4-B/8 |z [F/8G/8]B3/4-B/8z [G,/8C/8]E3/4-E/8 |z [G,/8C/8]E3/4-E/8z [G,/8C/8]E3/4-E/8 |z Dz [A,/8D/8]^F3/4-F/8 |z [A,/8D/8]^F3/4-F/8z [A,/8D/8]F3/4-F/8 |z G/8B3/4-B/8z G/8B3/4-B/8 |z G/8B3/4-B/8z G/8B3/4-B/8 |z [G,/8C/8]E3/4-E/8z [G,/8C/8]E3/4-E/8 |z [G,/8C/8]E3/4-E/8z [G,/8C/8]E3/4-E/8 |z E/8G3/4-G/8z [B,/8E/8]G3/4-G/8 |z A,z A, |z [G,/8C/8]E3/4-E/8z [G,/8C/8]E3/4-E/8 |z [G,/8C/8]E3/4-E/8z [G,/8C/8]E3/4-E/8 |z F/8A3/4-A/8z F/8A3/4-A/8 |z F/8A3/4-A/8z F/8A3/4-A/8 |z F/8A3/4-A/8z F/8A3/4-A/8 |z F/8A3/4-A/8z F/8A3/4-A/8 |z [G,/8C/8]E3/4-E/8z [G,/8C/8]E3/4-E/8 |z [G,/8C/8]E3/4-E/8z [G,/8C/8]E3/4-E/8 |z [G,/8C/8]E3/4-E/8z [G,/8C/8]E3/4-E/8 |z F/8A3/4-A/8z F/8A3/4-A/8 |z Gz G/8B3/4-B/8 |z Gz2 |z3/4 [e/4g/4]z [eg]z | [eg]z3/4 [e/4g/4]z2 |z3/4 [e/4g/4]z [eg]z | [FAd]z3/4 [F/4A/4d/4]z2 |z3/4 [B/4d/4e/4g/4]z [Bdeg]z | [EGBc]z3/4 [E/4G/4A/4c/4]z2 |z3/4 [C/4E/4A/4]z [CEA]z | [D^FA]z3/4 [B/4d/4]z2 |z3/4 [^G/4B/4^c/4e/4]z [GBce]z | [EGAc]z3/4 [E/4G/4A/4c/4]z2 |z3/4 [E/4G/4A/4c/4]z [EGAc]z | [Ge]z3/4 [G/4e/4]z2 |z3/4 [A/4d/4f/4]z [Adf]z | [^FABd]z3/4 [F/4A/4B/4d/4]z2 |z3/4 [^F/4A/4B/4d/4]z [FABd]z | [FABd]z3/4 [F/4A/4d/4]z2 |z3/4 [B/4e/4g/4]z [Beg]z | [EGAc]z3/4 [E/4G/4A/4c/4]z2 |z3/4 [E/4G/4A/4c/4]z [EGAc]z | [Ge]z3/4 [G/4e/4]z2 |z3/4 [E/4G/4A/4c/4]z [EGAc]z | [EGAc]z3/4 [E/4G/4A/4c/4]z2 |z3/4 [E/4G/4A/4c/4]z [EGAc]z | [Bdeg]z3/4 [B/4d/4e/4g/4]z2 |z3/4 [B/4d/4f/4g/4]z [Bdfg]z | [Bdfg]z3/4 [B/4d/4f/4g/4]z2 |z3/4 [B/4d/4f/4g/4]z [Bdfg]z | [Bdfg]z3/4 [B/4d/4f/4g/4]z2 |z3/4 [E/4G/4A/4c/4]z [EGAc]z | [Bd]z3/4 [B/4d/4]z2 |z3/4 [^F/4A/4B/4d/4]z [FABd]z | [Beg]z3/4 [B/4e/4g/4]z2 |z3/4 [B/4d/4e/4g/4]z [Bdeg]z | [EGAc]z3/4 [E/4G/4A/4c/4]z2 |z3/4 [E/4G/4A/4c/4]z [EGAc]z | [Ge]z3/4 [G/4e/4]z2 |z3/4 [C/4E/4A/4]z [CEA]z | [EAc]z3/4 [E/4A/4c/4]z2 |z3/4 [E/4G/4A/4c/4]z [EGAc]z | [Adf]z3/4 [A/4d/4f/4]z2 |z3/4 [A/4d/4f/4]z [Adf]z | [Adf]z3/4 [A/4d/4f/4]z2 |z3/4 [A/4d/4f/4]z [Adf]z | [Adf]z3/4 [A/4d/4f/4]z2 |z3/4 [A/4d/4f/4]z [Beg]z | [Beg]z3/4 [B/4e/4g/4]z2 |z3/4 [E/4G/4A/4c/4]z [EGAc]z | [EGAc]z3/4 [E/4G/4A/4c/4]z2 |z3/4 [E/4G/4A/4c/4]z [Adf]z | [Adf]z3/4 [A/4d/4f/4]z2 |z3/4 [G/4A/4c/4]z [GAc]z | [GAc]z3/4 [G/4A/4c/4]z2 |z3/4 [G/4A/4c/4]z [GAc]z | [GAc]z3/4 [G/4A/4c/4]z2 | z4|]
[V: P2]  z4 | [M: 4/4]  G,,z E,,,z | G,,z E,,,z | G,,z E,,,z | G,,z E,,,z | D,,z D,,z | G,,/G,,/z D,,z | G,,3/8G,,/-G,,/8z E,,,z | A,,,z E,,,z | D,,z D,,z | E,,z E,,,/8E,,,3/4-E,,,/8z | E,,/8G,,3/4-G,,/8z E,,,z | G,,z E,,,z | E,,z E,,,z | F,,z F,,,z | D,,z A,,,z | D,,z A,,,z | D,,z A,,,z | G,,/8G,,3/4-G,,/8z D,,z | G,,/4G,,3/4z E,,,z | G,,z E,,,z | E,,z E,,,z | G,,/8G,,3/4-G,,/8z E,,,z | G,,z E,,,z | G,,z E,,,z | G,,z G,,,z | G,,z D,,z | G,,z D,,z | G,,z D,,z | G,,z G,,,3/8G,,,/-G,,,/8z | G,,z E,,,z | D,,z D,,z | D,,z A,,,z | G,,z G,,,z | G,,z G,,,z | G,,z E,,,z | G,,z E,,,z | E,,z E,,,/8E,,,3/4-E,,,/8z | A,,,z A,,,z | G,,z E,,,z | G,,z E,,,z | F,,z F,,,z | F,,z F,,,z | F,,z F,,,z | F,,z F,,,z | F,,/8G,,/8G,,3/4z E,,,z | G,,z E,,,z | G,,z E,,,z | F,,/8F,,3/4-F,,/8z F,,,z | F,,/8G,,3/4-G,,/8z G,,,/8G,,,3/4-G,,,/8z | G,,/G,,/z G,,,/4G,,3/4 G,,3/4G,,,/4 | G,, G,,, G,,, A,, | G,,3/4G,,,/4 G,, G,,, G,,, | G,,, A,,, G,,, G,,,3/4D,,/4 | D,, E,, F,, A,,3/8A,,,3/8A,,,/4 | G,, B,,, D,, A,,3/4-A,,/8G,,/8 | G,,3/8G,,3/8E,,,/4 G,, C,, E,,, | A,,, B,,, C,, E,,, | A,,, B,,,/4D,,3/4 D,, D,,3/4D,,/4 | ^G,,,/8E,,3/4-E,,/8 G,,, B,,, ^F,, | G,,3/4E,,,/4 G,, C,, E,,, | G,,, D,, C,, E,,, | E,, ^F,,3/4-F,,/8E,,/8 G,, B,,/-B,,/8B,,,/8B,,,/4 | F,, A,,, F,,, G,, | D,,3/4A,,,/4 D,, ^F,,, A,,, | D,, E,,, ^F,,, A,,, | D,,3/8D,,/-D,,/8 E,, F,, A,,3/8A,,,3/8A,,,/4 | G,, B,,, G,,, A,,3/4-A,,/8E,,/8 | G,,3/4E,,,/4 G,, C,, E,,, | G,,, D,, C,, E,,, | E,, ^F,, E,, B,,3/4B,,,/4 | G,, C,, E,,, D,, | C,,3/4E,,,/4 G,, C,, E,,, | G,,, D,, C,, E,,, | G,, A,, B,, D,3/4D,,/4 | G,,/8G,,3/4-G,,/8 B,,, D,, F,,3/4-F,,/8G,,/8 | G,,3/4D,,/4 G,, B,,, F,, | G,,, A,,, B,,, D,, | G,, A,, B,, F,,/-F,,/8G,,/8G,,,/8G,,,/8 | G,, C,, E,,, D,, | D,,3/4D,,/4 D,,3/4-D,,/8D,,/8 ^F,,, A,,, | D,, E,,, ^F,,, A,,, | G,, A,, B,, G,,3/4G,,,/4 | D,,/8G,,/8G,,3/4 B,,, D,, A,,/G,,/ | G,,3/4E,,,/4 G,, C,, E,,, | G,,, D,, C,, E,,, | E,, ^F,, E,, B,,3/4B,,,/4 | A,,, C,, E,,, B,,,3/4-B,,,/8C,,/8 | C,,3/4C,,/4 C,, C,, G,,,3/4-G,,,/8C,,/8 | C,, D,, E,,, G,,, | F,, G,, A,, F,,3/4F,,,/4 | F,, A,,, F,,, G,, | A,,3/4F,,,/4 F,, A,,, F,,, | F,,, G,,, A,,, F,,, | F,, G,, A,, F,,3/4F,,,/4 | F,, A,,,3/4-A,,,/8G,,,/8 G,,,/8G,,,3/4-G,,,/8 A,, | B,,3/4G,,,/4 G,, C,, G,,, | C,, D,, E,,, G,,, | C,, D,, E,, G,,3/4G,,,/4 | C,, E,,, F,,, G,, | A,,3/4F,,,/4 F,, A,,, F,,,3/8G,,,/C,,/8 | C,, D,, C,, G,,, | C,, D,, C,, G,,3/4G,,,/4 | C,, C,, G,,, D,, | C,,3/4G,,,/4 C,, C,, G,,, | z4|]
[V: P3]  z4 | [M: 4/4]  [C4-E4-G4-] | [C4E4G4] | [C4E4G4] | [C3E3G3] [C/4E/4G/4]E/-E/8[D/8F/8] | [D3/-F3/-] [D/4F/4][D/4-F/4-A/4-] [D3/F3/A3/] [D3/8F3/8A3/8][D/8-G/8-d/8-] | [D/G/d/][D/-G/-B/-d/-] [D2G2B2d2] [D3/4G3/4B3/4d3/4][G/4B/4] | [B,3/8C3/8E3/8G3/8][C/-E/-G/-][C/8E/8G/8] [C2E2G2] [C3/4E3/4G3/4][C/8E/8][C/8-E/8-] | [C3E3] [C/E/]E3/8[D/8F/8] | [D3/-F3/-] [D/4F/4][D/4-F/4-A/4-] [D3/F3/A3/] [D3/8F3/8A3/8][E/8-^G/8-] | [E2^G2] [E/8G/8][B,3/4-E3/4-G3/4-B3/4-][B,/8E/8G/8B/8] [B,EGB] | [B,/8E/8^G/8B/8][C3/4-E3/4-=G3/4-][C/8E/8G/8] [C3E3G3] | [C3E3G3] [C3/4E3/4G3/4][E/4G/4] | [E3/-G3/-] [E3/8G3/8][B,/8-E/8-G/8-B/8-] [B,EGB] [B,3/8E3/8G3/8B3/8]B,/[F/8-A/8-] | [F4A4] | [D/8^F/8][D3/4-F3/4-A3/4-][D/8F/8A/8] [D3F3A3] | [D3^F3A3] [D3/4F3/4A3/4]D/4 | [D4F4A4] | [D/8G/8d/8][D3/4-G3/4-B3/4-d3/4-][D/8G/8B/8d/8] [D2G2B2d2] [D3/4G3/4B3/4d3/4][D/8G/8B/8d/8][G/8-B/8-] | [G/4B/4][C3/4-E3/4-G3/4-] [C3E3G3] | [C4E4G4] | [E2G2] [B,2E2G2B2] | G/8[C3/4-E3/4-G3/4-][C/8E/8G/8] [C3E3G3] | [C4E4G4] | [C4E4G4] | [D3/-G3/-B3/-d3/-] [D3/8G3/8B3/8d3/8][F/8-G/8-B/8-d/8-] [F2G2B2d2] | [F4G4B4d4] | [F4G4B4d4] | [F3G3B3d3] [F3/4G3/4B3/4d3/4][F/8G/8B/8d/8][B,/8D/8F/8] | [F3/-G3/-B3/-d3/-] [F/4G/4B/4d/4][G/4B/4] [B,3/8C3/8E3/8G3/8][C/-E/-G/-][C/8E/8G/8] [CEG] | [C4E4G4] | D3/- D3/8[D/8^F/8] [D2-F2-A2-] | [D3^F3A3] [D3/4F3/4A3/4][D/8F/8A/8]G/8 | [G/8B/8][G3/4-B3/4-][G/8B/8] [G3B3] | [G4B4] | [C4-E4-G4-] | [C4E4G4] | [E2-G2-] [E/8G/8][B,3/4-E3/4-G3/4-B3/4-][B,/8E/8G/8B/8] [B,EGB] | z4 | [C4-E4-G4-] | [C4E4G4] | [F/8A/8][F3/4-A3/4-][F/8A/8] [F3A3] | [F4A4] | [F4A4] | [F4A4] | [F/8A/8][E/8G/8e/8][C3/4-E3/4-G3/4-] [C3E3G3] | [C4E4G4] | [C4E4G4] | F/8[F3/4-A3/4-][F/8A/8] [F3A3] | [F/8A/8]G3/4-G/8 G G/8[G3/4-B3/4-][G/8B/8] [GB] | [G/B/]G/- G G/4g'3/4- g' | g'4 | g'4 | g'3- g'3/4[A/8d'/8a'/8][F/8-A/8-d'/8-a'/8-] | [F3A3d'3a'3] [F3/8A3/8d'3/8a'3/8]a/d'/8 | [d/8d'/8g'/8][B3/4-d3/4-d'3/4-g'3/4-][B/8d/8d'/8g'/8] [B2d2d'2g'2] [B3/4d3/4d'3/4g'3/4][B/8d/8d'/8g'/8][B/8g'/8] | [E3/8G3/8b3/8g'3/8][E/-G/-c'/-g'/-][E/8G/8c'/8g'/8] [E3G3c'3g'3] | [C3-E3-a3-e'3-] [C3/4E3/4a3/4e'3/4][C/8E/8a/8e'/8][D/8-a/8-] | [Da] [D/4a/4]d'3/4- d'2 | [B,/8^g/8][G3/4-B3/4-e'3/4-b'3/4-][G/8B/8e'/8b'/8] [G3B3e'3b'3] | [E4G4c'4g'4] | [E4G4c'4g'4] | [G3/-e'3/-] [G3/8e'3/8][G/8-B/8-e'/8-b'/8-] [G3/B3/e'3/b'3/] [G/8B/8e'/8b'/8]b3/8 | [A4f'4] | [^F4A4d'4a'4] | [^F3-A3-d'3-a'3-] [F3/4A3/4d'3/4a'3/4][F/8A/8d'/8a'/8]d'/8 | [F3/8A3/8b3/8a'3/8][F/-A/-d'/-a'/-][F/8A/8d'/8a'/8] [F2A2d'2a'2] [F3/8A3/8d'3/8a'3/8]a/-a/8 | [B3-g'3-] [B3/4g'3/4][B/8g'/8]e'/8 | [E4G4c'4g'4] | [E4G4c'4g'4] | [G2e'2] [G2B2e'2b'2] | [E4-G4-c'4-g'4-] | [E4G4c'4g'4] | [E4G4c'4g'4] | [B4-d4-d'4-g'4-] | [B/8d/8d'/8g'/8][B3/4-d3/4-d'3/4-f'3/4-][B/8d/8d'/8f'/8] [B2d2d'2f'2] [B3/4d3/4d'3/4f'3/4][B/8d/8d'/8f'/8][B/8f'/8] | [B4d4d'4f'4] | [B4-d4-d'4-f'4-] | [B3d3d'3f'3] [B/d/d'/f'/][B/8d/8d'/8f'/8][B/8g'/8][E/4-G/4-c'/4-g'/4-] | [E4G4c'4g'4] | d'3/- d'3/8[^F/8-A/8-d'/8-a'/8-] [F2A2d'2a'2] | [^F4A4d'4a'4] | [B4g'4] | d'/8[d/8d'/8g'/8][B3/4-d3/4-d'3/4-g'3/4-] [B2d2d'2g'2] [B/d/d'/g'/][B/g'/] | [E4G4c'4g'4] | [E4G4c'4g'4] | [G2e'2] [G2B2e'2b'2] | [C3-E3-a3-e'3-] [C3/4E3/4a3/4e'3/4][C/8E/8a/8e'/8]c'/8 | [E2c'2] [E3/-G3/-c'3/-g'3/-] [E3/8G3/8c'3/8g'3/8][G/8c'/8g'/8] | [E/8G/8c'/8g'/8][E3/4-G3/4-c'3/4-g'3/4-][E/8G/8c'/8g'/8] [E3G3c'3g'3] | [A4-f'4-] | [A4f'4] | [A4f'4] | [A4-f'4-] | [A4f'4] | [A3/f'3/] [A3/8f'3/8]g'/8 [B2-g'2-] | [B2g'2] [E2G2c'2g'2] | [E4-G4-c'4-g'4-] | [E4G4c'4g'4] | [E2G2c'2g'2] [A2-f'2-] | [A3f'3] [A3/8f'3/8]g'/[G/8c'/8g'/8] | [G4-c'4-g'4-] | [G4c'4g'4] | [G4c'4g'4] | [G4c'4g'4] | z4|]
[V: P4]  z4 | [M: 4/4]  G,4- | G,4 | G,4 | G,4 |z3/z/4 A,/4- A,2 | z4 |z3/8 G,/-G,/8 G,2 G,3/4G,/8[A,,/8-A,/8-] | [A,,4A,4] |z3/z/4 A,/4- A, A,3/8A,/^G,/8 | z4 |z/8 G,3/4-G,/8 G,3 | G,4 | z4 |z3z/4 ^G,3/4 | A,4- | A,4 | A,4 | z4 |z/4 G,3/4- G,3 | G,4 | z4 |z/8 G,3/4-G,/8 G,3 | G,4 | G,4 | z4 | z4 | z4 |z3z3/4z/8 F,/8 |z2z3/8 G,/-G,/8 G, | G,4 |z3/z3/8 A,/8- A,2 | A,4 | z4 | z4 | G,4- | G,4 | z4 | A,4 | G,4- | G,4 | z4 | z4 | z4 | z4 |z/4 G,3/4- G,3 | G,4 | G,4 | z4 | z4 | z4 | z4 | z4 | z4 | z4 | z4 | z4 | z4 | z4 | z4 | z4 | z4 | z4 | z4 | z4 | z4 | z4 | z4 | z4 | z4 | z4 | z4 | z4 | z4 | z4 | z4 | z4 | z4 | z4 | z4 | z4 | z4 | z4 | z4 | z4 | z4 | z4 | z4 | z4 | z4 | z4 | z4 | z4 | z4 | z4 | z4 | z4 | z4 | z4 | z4 | z4 | z4 | z4 | z4 | z4 | z4|]
[V: P5]  z4 | [M: 4/4]  z4 | z4 | E2 E2 | G3/- G3/8G/8- G3/ G3/8F/8- | F E3/4F/4- F3/4F/8G/8- G | G4 |z3z3/4 D/8E/8- | E E3/4E/4- E E |z3z3/4z/8 D/8- | D3z/8 D3/4-D/8 | Dz3 | c c3/4c/4- c3/4c/8c/8- c3/4c/8B/8- | B B3/4G/4- G3/4G/8E/8- E3/4A/4- | A3 E | D D3/4D/4- D D3/4B/4- | B B3/4-B/8B/8- B3/4B/8B/8- B3/4B/8A/8- | A A3/4-A/8F/8- F E | D4- | Dz2 D | [E3/4-F3/4-][E/8F/8]G/8- G3/4G/8A/8- A3/4A/8c/8- c3/4c/8B/8- | B3 G- | G/8E3/4-E/8 E2 E3/4E/8A/8- | A G3/4-G/8E/8- Ez3/4 A/4- | A3/4G/4- G3/4G/8E/8- Ez | z4 |z2z3/4z/8 F/8- F | E- E/8D3/4D/8- D ^C3/4-C/8D/8- | D3 A/-A/8B3/8 | A3/4-A/8G/8- G3/4G/8^F/8- F A3/4G/4- | G3 E | D3/4-D/8E/8- E3/4E/8^F/8- Fz/8 G3/4-G/8 | A ^G3/4-G/8A/8- A ^A3/4-A/8B/8- | B A3/4-A/8F/8- F E | D3 G |z3 D3/4-D/8E/8- | E G3/4-G/8A/8- A3/4A/8c/8- c3/4c/8B/8- | B3 G | E3- E3/4E/8A/8- | A3/4A/8G/8- G3/4G/8E/8- Ez3/4z/8 A/8- | A3/4A/8G/8- G3/4E/4- Ez | A4- | A3 ^G/4A/B/4- | B/8c3/4-c/8 c3/4c/4- c3/4c/8d/8- d3/4d/8B/8- | B3 ^F | Az/8 G3/8G3/8F/8- F E | D2 E3/4-E/8F/8- F3/4F/8G/8- | G3/4G/8A/8- A3/4A/8c/8- c A3/4-A/8c/8- | c2 d2 | c2 F/8A3/4-A/8 A | A/8E3/4-E/8 Ez2 | z4 | E2 E3/- E3/8G/8- | G3/ G3/8G/8- G G3/8D/4[E3/8F3/8] |z E3/4-E/8F/8- F G3/4-G/8G/8- | G4 |z3z3/4 D/8E/8- | E E3/4-E/8E/8- Ez/8 E3/4-E/8 | z4 | D3 D- | Dz2z3/4z/8 c/8- | c3/4c/8c/8- c3/4c/4- c c | B3/4-B/8B/8- B3/4G/4- G3/4G/8E/8- E3/4E/8A/8- | A3 E3/4-E/8D/8- | D D3/4D/4- D3/4D/8D/8- D3/4D/8B/8- | B B3/4B/4- B B | A A3/4-A/8F/8- F E | D4 |z2z3/4z/8 D/8- D3/4D/8E/8- | E3/4E/8G/8- G3/4G/8A/8- A3/4A/8c/8- c3/4c/8B/8- | B3 G | E3- E3/4A/4- | A G3/4-G/8E/8- E3/ E/4A/4- | A3/4A/8G/8- G E2 | z4 |z2z3/4z/8 F/8- F | E D D3/4-D/8^C/8- C3/4D/4- | D2 D3/4D/8A/8- A/B/ | A G ^F3/4-F/8A/8- A3/4[E/4-G/4-] | [E3G3] E- | E/8D3/4-D/8 E3/4^F/4- F G3/4-G/8A/8- | A ^G3/4-G/8A/8- A ^A | B A3/4-A/8F/8- F E |z/8 D3/4-D/8 D3/ D3/8G/8- G |z2z3/4z/8 D/8- D3/4D/8E/8- | E3/4E/8G/8- G3/4G/8A/8- A c | B2- B3/4B/8G/8- G | E3- E3/4E/8A/8- | A3/4A/8G/8- G3/4G/8E/8- E2 | A3/4-A/8G/8- G E2 | A4- | A3 ^G3/4-G/8A/8- | A B3/4-B/8c/8- c c3/4-c/8c/8- | c d/8B3/4-B/8 B2- | B3/4B/8^F/8- F A G/G3/8=F/8- | F3/4F/8E/8- E3/4E/8D/8- D3/ D3/8E/8- | E F G A | c A c2 | d3/- d3/8[E/8-c/8-] [E2c2] | [E2c2] [F2-A2-] | [F3A3] [F3/4A3/4]c/8E/8- | E4 | E4 | Ez3 | z4 | z4|]
[V: P6]  z4 | [M: 4/4]  z4 | z4 | z4 | z4 |z3z3/4z/8 B,/8- | B,3 B,3/4B,/8C/8- | C C/-C/8C3/8- C3/4C/8C/8- C |z3z3/4z/8 B,/8- | B,z/8 B,/-B,/8B,/4- B,3/4B,/8B,/8- B, | z4 |z/8 C3/4-C/8z/8 C3/4C/8- C C | z4 | z4 |z3/z3/8 C,/8- C,2 |z3/z/8 C,3/8- C,2 | C,4 | z4 | z4 |z/8 C3/4-C/8 C2z | z4 | z4 | z4 |z2z3/4 C/4- C |z2z3/4z/8 C/8- C3/4C/8B,/8- | B,4 | B,3z | z4 | z4 | z4 | z4 |z3/z3/8 C,/8- C,2 | C,3 C,3/4C,/8D,/8- | D,4 | D,3z | C3z | z4 |z3z3/4z/8 [C,/8-E,/8-] | [C,3E,3]z |z2z3/4z/8 C/8- C |z2z3/4 C/4- C | Cz3/4z/8 C,/8- C,2 | C,4 | C,3/ C,/4C,/4- C,2 | C,3z | z4 | z4 | z4 | C,4 | [C,2E,2]z2 |z/8 [C,3/4-E,3/4-][C,/8E,/8] [C,3E,3] | [C,4E,4] | [C,4-E,4-] | [C,4E,4] | z4 |z3z3/4z/8 C/8- | C C3/4-C/8C/8- Cz/8 C3/4-C/8 | z4 | B,z/8 B,3/4B,/8- B, B, |z3z3/4z/8 C/8- | C C C C | z4 | z4 |z2 C,2 |z3/z/8 C,3/8- C,2 | C,4 | z4 |z3/z3/8 D,/8- D,2 | C4 | z4 | z4 | z4 |z2z3/4z/8 C/8- C |z3 C3/4-C/8B,/8- | B,4 | B,4 | B,2z2 | z4 | z4 | z4 |z3/z/4 C,/4- C,2 | C,4 | D,4 | z4 | C3z | z4 | z4 | z4 |z3 C |z2z3/4z/8 C/8- C |z2 C,2- | C,4 | C,2z3/z3/8 C,/8- | C,4 | C,3/ C,3/8C,/8- C,2 | C,2z3/z3/8 D,/8- | D,z3 | z4 | z4 | C,4- | C,4 | z4 | z4 | z4 | z4 | z4|]
[V: P7]  z4 | [M: 4/4]  [G,4-C4-] | [G,4C4] | [G,4-C4-] | [G,3C3] [G,/4C/4][E,3/4E3/4] | [D,3/-D3/-] [D,/4D/4][D,/4-D/4-] [D,3/D3/] [D,3/8D3/8][G,/8-G/8-] | [G,/G/][G,/-G/-] [G,3G3] | [G,3/8C3/8][G,/-C/-][G,/8C/8] [G,2C2] [G,3/4C3/4][C,/8C/8][A,,/8-A,/8-] | [A,,3A,3] [A,,/A,/][E,/E/] | [D,3/-D3/-] [D,/4D/4][D,/4-D/4-] [D,D] [D,3/8D3/8][A,,/A,/][^G,,/8^G,/8] | [E,2-E2-] [E,/8E/8][E,3/4-E3/4-][E,/8E/8] [E,E] | [E,/8E/8][G,3/4-C3/4-][G,/8C/8] [G,3C3] | [G,4C4] | [E,3/-E3/-] [E,3/8E3/8][E,/8-E/8-] [E,E] [E,3/8E3/8][B,,/B,/][F,/8-F/8-] | [F,3F3] [F,/4F/4][^G,,3/4^G,3/4] | [D,4-D4-] | [D,4D4] | [D,4D4] | [G,/8G/8][G,3/4-G3/4-][G,/8G/8] [G,3G3] | [G,/4G/4][G,3/4-C3/4-] [G,3C3] | [G,4C4] | [E,2E2] [E,2E2] | [G,/8G/8][G,3/4-C3/4-][G,/8C/8] [G,3C3] | [G,4-C4-] | [G,4C4] | [G,3/-G3/-] [G,3/8G3/8][G,/8-G/8-] [G,2G2] | [G,4G4] | [G,4-G4-] | [G,4G4] | [G,3/-G3/-] [G,/4G/4][G,/4G/4] [G,3/8C3/8][G,/-C/-][G,/8C/8] [G,C] | [G,4C4] | [D,3/-D3/-] [D,3/8D3/8][D,/8D/8] [D,2-D2-] | [D,4D4] | [G,4-G4-] | [G,4G4] | [G,4-C4-] | [G,4C4] | [E,2-E2-] [E,/8E/8][E,3/4-E3/4-][E,/8E/8] [E,E] | [A,,4A,4] | [G,4-C4-] | [G,4C4] | [F,4-F4-] | [F,4F4] | [F,4-F4-] | [F,4F4] | [F,/8F/8][G,/8G/8][G,3/4-C3/4-] [G,3C3] | [G,4C4] | [G,4C4] | [F,/8F/8][F,3/4-F3/4-][F,/8F/8] [F,3F3] | [F,/8F/8][G,3/4-G3/4-][G,/8G/8] [G,G] [G,/8G/8][G,3/4-G3/4-][G,/8G/8] [G,G] | [G,/G/][G,/-G/-] [G,G] [G,/4G/4][G,3/4-G3/4-] [G,G] | [G,4-G4-] | [G,4G4] | [G,3-G3-] [G,3/4G3/4][D,/8D/8][D,/8-D/8-] | [D,3D3] [D,3/8D3/8][A,,/-A,/-][A,,/8A,/8] | [G,3-G3-] [G,3/4G3/4][G,/8G/8][G,/8G/8] | [G,3/8C3/8][G,/-C/-][G,/8C/8] [G,3C3] | [A,,3-A,3-] [A,,3/4A,3/4][A,,/8A,/8][A,,/8-A,/8-] | [A,,A,] [A,,/4A,/4][D,3/4-D3/4-] [D,2D2] | [^G,,/8^G,/8][E,3/4-E3/4-][E,/8E/8] [E,3E3] | [G,4C4] | [G,4C4] | [E,3/-E3/-] [E,3/8E3/8][E,/8-E/8-] [E,3/E3/] [E,/8E/8][B,,3/8B,3/8] | [F,4F4] | [D,4D4] | [D,3-D3-] [D,3/4D3/4][D,/8D/8][D,/8D/8] | [D,3/8D3/8][D,/-D/-][D,/8D/8] [D,2D2] [D,3/8D3/8][A,,/-A,/-][A,,/8A,/8] | [G,3-G3-] [G,3/4G3/4][G,/8G/8][E,/8E/8] | [G,4C4] | [G,4C4] | [E,2E2] [E,2E2] | [G,4-C4-] | [G,4C4] | [G,4C4] | [G,4G4] | [G,/8G/8][G,3/4-G3/4-][G,/8G/8] [G,2G2] [G,3/4G3/4][G,/8G/8][G,/8G/8] | [G,4G4] | [G,4-G4-] | [G,3G3] [G,/G/][G,/8G/8][G,3/8G3/8] | [G,4C4] | [D,3/-D3/-] [D,3/8D3/8][D,/8-D/8-] [D,2D2] | [D,4D4] | [G,4G4] | [D,/8D/8][G,/8G/8][G,3/4-G3/4-] [G,2G2] [G,/G/][G,/G/] | [G,4C4] | [G,4C4] | [E,2E2] [E,2E2] | [A,,3-A,3-] [A,,3/4A,3/4][A,,/8A,/8][C,/8C/8] | [C,2C2] [C,2C2] | [C,4C4] | [F,4F4] | [F,4-F4-] | [F,4F4] | [F,4-F4-] | [F,4F4] | [F,3/-F3/-] [F,3/8F3/8][G,/8G/8] [G,2-G2-] | [G,2G2] [C,2C2] | [C,4-C4-] | [C,4C4] | [C,2C2] [F,2-F2-] | [F,3F3] [F,3/8F3/8][G,/-G/-][G,/8G/8] | [C,4-C4-] | [C,4C4] | [C,4-C4-] | [C,4C4] | z4|]
[V: P8]  z4 | [M: 4/4]  [G,4-E4-] | [G,4E4] | [G,4E4] | [G,3E3] [G,3/4E3/4][G,/8E/8]F/8 | F3/- F/4[A,/4-F/4-] [A,3/F3/] [A,3/8F3/8]D/8- | D/[D/-B/-] [D2B2] [D3/4B3/4]B/4 | [B,3/8E3/8][G,/-E/-][G,/8E/8] [G,2E2] [G,3/4E3/4]E/8[A,,/8-C/8-] | [A,,3C3] [A,,3/4C3/4][A,,/8C/8]F/8 | F3/- F/4[A,/4-F/4-] [A,3/F3/] [A,3/8F3/8]^G/8- | ^G2 G/8[B,3/4-G3/4-][B,/8G/8] [B,G] | [B,/8^G/8][=G,3/4-E3/4-][G,/8E/8] [G,3E3] | [G,3E3] [G,3/4E3/4]G/4 | G3/- G3/8[B,/8-G/8-] [B,3/G3/] [B,3/8G3/8]A/8- | A4 | ^F/8[A,3/4-F3/4-][A,/8F/8] [A,3F3] | [A,4^F4] | [A,4F4] | D/8[D3/4-B3/4-][D/8B/8] [D2B2] [D3/4B3/4][D/8B/8]B/8- | B/4[G,3/4-E3/4-] [G,3E3] | [G,4E4] | G2 [B,2G2] |z/8 [G,3/4-E3/4-][G,/8E/8] [G,3E3] | [G,4E4] | [G,4E4] | [D3/-B3/-] [D3/8B3/8][F/8-B/8-] [F2B2] | [F4B4] | [F4B4] | [F3B3] [F3/4B3/4][F/8B/8][F,/8D/8] | [F3/-B3/-] [F/4B/4]B/4 [B,3/8E3/8][G,/-E/-][G,/8E/8] [G,E] | [G,4E4] |z3/z3/8 ^F/8 [A,2-F2-] | [A,4^F4] | B/8B3/4-B/8 B3 | B4 | [G,4-E4-] | [G,4E4] | G2- G/8[B,3/4-G3/4-][B,/8G/8] [B,G] | z4 | [G,4-E4-] | [G,4E4] | A/8A3/4-A/8 A3 | A4 | A4 | A4 | A/8E/8[G,3/4-E3/4-] [G,3E3] | [G,4E4] | [G,4E4] |z/8 A3/4-A/8 A3 | Azz/8 B3/4-B/8 B | Bz3 | z4 | z4 |z3z3/4 A,/8[A,/8-F/8-] | [A,4F4] | D/8[D3/4-B3/4-][D/8B/8] [D2B2] [D3/4B3/4][D/8B/8]B/8 | [B,3/8E3/8][G,/-E/-][G,/8E/8] [G,3E3] | [A,,3-C3-] [A,,3/4C3/4][A,,/8C/8]D/8- | D2z2 | B,/8[B,3/4-^G3/4-][B,/8G/8] [B,3G3] | [G,4E4] | [G,4E4] | G3/- G3/8[B,/8-G/8-] [B,2G2] | A4 | [A,4^F4] | [A,4^F4] | [B,3/8F3/8][A,/-F/-][A,/8F/8] [A,3F3] | B4 | [G,4E4] | [G,4E4] | G2 [B,2G2] | [G,4-E4-] | [G,4E4] | [G,4E4] | [D4-B4-] | [D/8B/8][F3/4-B3/4-][F/8B/8] [F2B2] [F3/4B3/4][F/8B/8][F/8B/8] | [F4B4] | [F4-B4-] | [F3B3] [F/B/][F/8B/8]B/8[G,/4-E/4-] | [G,4E4] |z3/z3/8 [A,/8-^F/8-] [A,2F2] | [A,4^F4] | B4 |z/8 D/8[D3/4-B3/4-] [D2B2] [D/B/]B/ | [G,4E4] | [G,4E4] | G2 [B,2G2] | [A,,4C4] | E2 [G,3/-E3/-] [G,3/8E3/8]G,/8 | [G,/8E/8][G,3/4-E3/4-][G,/8E/8] [G,3E3] | A4- | A4 | A4 | A4- | A4 | A3/ A3/8B/8- B2 | B2 [G,2E2] | [G,4-E4-] | [G,4E4] | [G,2E2] A2- | A3 A3/4A/8G,/8 | G,4- | G,4 | G,4 | G,4 | z4|]
[V: P9]  z4 | [M: 4/4] z [EGAc]z2 | z4 |z [EGAc]z2 | z4 |z [Fd]z2 | z4 |z [EGAc]z2 | z4 |z [Fd]z2 | z4 |z [EGAc]z2 | z4 |z [Ge]z2 | z4 |z [^FABd]z2 | z4 |z [FAd]z2 | z4 |z [EGAc]z2 | z4 |z [Ge]z2 | z4 |z [EGAc]z2 | z4 |z [Bdeg]z2 | z4 |z [Bdfg]z2 |z3/z/4 [B/4-d/4-] [B3/4d3/4][d/4f/4] [gb] |z [Bdfg]z2 | z4 |z [Bd]z2 | z4 |z [Beg]z2 | z4 |z [EGAc]z2 | z4 |z [Ge]z2 | z4 |z [EGAc]z2 | z4 |z [Adf]z2 | z4 |z [Adf]z2 | z4 |z [EGAc]z2 | z4 |z [EGAc]z2 | z4 |z [eg]z2 | z4 | z4 | z4 | z4 | z4 | z4 | z4 | z4 | z4 | z4 | z4 | z4 | z4 | z4 | z4 | z4 | z4 | z4 | z4 | z4 | z4 | z4 | z4 | z4 | z4 | z4 | z4 | z4 | z4 | z4 | z4 | z4 | z4 | z4 | z4 | z4 | z4 | z4 | z4 | z4 | z4 | z4 | z4 | z4 | z4 | z4 | z4 | z4 | z4 | z4 | z4 | z4 | z4 | z4 | z4 | z4|]
[V: P10]  z4 | [M: 4/4]  z4 | z4 |z2 G,2 | G,,3- G,,/4E,,3/4 |z2z/8 D,,3/4-D,,/8 D,, | z4 |z2 G,3/- G,3/8A,,,/8- | A,,,4 |z2z/8 D,,3/4-D,,/8 D,, | z4 |z2 G,2 | G,,4 |z2z/8 E,,3/4-E,,/8 E,, | z4 |z2 D,2 | D,,4 |z2z/8 D,,3/4-D,,/8 D,, | z4 |z2 G,2 | G,,4 |z2z/8 E,,3/4-E,,/8 E,, | z4 |z2 G,2 | G,,4 | z4 |z G,, A,, B,, |z2 G,2 | G,,4 | z4 | z4 |z2 D,2 | D,,4 | z4 | z4 |z2 G,2 | G,,4 |z2z/8 E,,3/4-E,,/8 E,, | z4 |z2 G,2 | G,,4 | z4 | z4 |z2 F,2 | F,,4 | z4 | z4 |z2 G,2 | F,,/8F,,3/4-F,,/8 F,,3 | z4 | z4 | z4 | z4 | z4 | z4 | z4 | z4 | z4 | z4 | z4 | z4 | z4 | z4 | z4 | z4 | z4 | z4 | z4 | z4 | z4 | z4 | z4 | z4 | z4 | z4 | z4 | z4 | z4 | z4 | z4 | z4 | z4 | z4 | z4 | z4 | z4 | z4 | z4 | z4 | z4 | z4 | z4 | z4 | z4 | z4 | z4 | z4 | z4 | z4 | z4 | z4 | z4 | z4 | z4 | z4 | z4|]
[V: P11]  z4 | [M: 4/4]  ^D [^F,C]z [F,3/4^C3/4]C/4 | ^D [^F,C]z [F,3/4^C3/4]C/4 | ^D [^F,C]z [F,3/4^C3/4]C/4 | ^D [^F,C]z [F,3/4^C3/4]C/4 | ^D [^F,C]z [F,3/4^C3/4]C/4 | ^D [^F,C]z [F,3/4^C3/4]C/4 | ^D [^F,C]z [F,3/4^C3/4]C/4 | ^D [^F,C]z [F,3/4^C3/4]C/4 | ^D [^F,C]z [F,3/4^C3/4]C/4 | ^D [^F,C]z [F,3/4^C3/4]C/4 | ^D [^F,C]z [F,3/4^C3/4]C/4 | ^D [^F,C]z [F,3/4^C3/4]C/4 | ^D [^F,C]z [F,3/4^C3/4]C/4 | ^D [^F,C]z [F,3/4^C3/4]C/4 | ^D [^F,C]z [F,3/4^C3/4]C/4 | ^D [^F,C]z [F,3/4^C3/4]C/4 | ^D [^F,C]z [F,3/4^C3/4]C/4 | ^D [^F,C]z [F,3/4^C3/4]C/4 | ^D [^F,C]z [F,3/4^C3/4]C/4 | ^D [^F,C]z [F,3/4^C3/4]C/4 | ^D [^F,C]z [F,3/4^C3/4]C/4 | ^D [^F,C]z [F,3/4^C3/4]C/4 | ^D [^F,C]z [F,3/4^C3/4]C/4 | ^D [^F,C]z [F,3/4^C3/4]C/4 | ^D [^F,C]z [F,3/4^C3/4]C/4 | ^D [^F,C]z [F,3/4^C3/4]C/4 | ^D [^F,C]z [F,3/4^C3/4]C/4 | ^D [^F,C]z [F,3/4^C3/4]C/4 | ^D [^F,C]z [F,3/4^C3/4]C/4 | ^D [^F,C]z [F,3/4^C3/4]C/4 | ^D [^F,C]z [F,3/4^C3/4]C/4 | ^D [^F,C]z [F,3/4^C3/4]C/4 | ^D [^F,C]z [F,3/4^C3/4]C/4 | ^D [^F,C]z [F,3/4^C3/4]C/4 | ^D [^F,C]z [F,3/4^C3/4]C/4 | ^D [^F,C]z [F,3/4^C3/4]C/4 | ^D [^F,C]z [F,3/4^C3/4]C/4 | ^D [^F,C]z [F,3/4^C3/4]C/4 | ^D [^F,C]z [F,3/4^C3/4]C/4 | ^D [^F,C]z [F,3/4^C3/4]C/4 | ^D [^F,C]z [F,3/4^C3/4]C/4 | ^D [^F,C]z [F,3/4^C3/4]C/4 | ^D [^F,C]z [F,3/4^C3/4]C/4 | ^D [^F,C]z [F,3/4^C3/4]C/4 | ^D [^F,C]z [F,3/4^C3/4]C/4 | ^D [^F,C]z [F,3/4^C3/4]C/4 | ^D [^F,C]z [F,3/4^C3/4]C/4 | ^D [^F,C]z [F,3/4^C3/4]C/4 | ^D [^F,C]z [F,3/4^C3/4]C/4 | ^D [^F,C]z [B,3/4^C3/4][B,/4C/4] | [B,^D] [^F,3/4B,3/4]B,/4 B, [B,3/4^C3/4][B,/4C/4] | [B,^D] B,3/4B,/4 B, [B,3/4^C3/4][B,/4C/4] | [B,^D] [^F,3/4B,3/4]B,/4 B, [B,3/4^C3/4][B,/4C/4] | [B,^D] B,3/4B,/4 B, [B,3/4^C3/4][B,/4C/4] | [B,^D] [^F,3/4B,3/4]B,/4 B, [B,3/4^C3/4][B,/4C/4] | [B,^D] B,3/4B,/4 B, [B,3/4^C3/4][B,/4C/4] | [B,^D] [^F,3/4B,3/4]B,/4 B, [B,3/4^C3/4][B,/4C/4] | [B,^D] B,3/4B,/4 B, [B,3/4^C3/4][B,/4C/4] | [B,^D] [^F,3/4B,3/4]B,/4 B, [B,3/4^C3/4][B,/4C/4] | [B,^D] B,3/4B,/4 B, [B,3/4^C3/4][B,/4C/4] | [B,^D] [^F,3/4B,3/4]B,/4 B, [B,3/4^C3/4][B,/4C/4] | [B,^D] B,3/4B,/4 B, [B,3/4^C3/4][B,/4C/4] | [B,^D] [^F,3/4B,3/4]B,/4 B, [B,3/4^C3/4][B,/4C/4] | [B,^D] B,3/4B,/4 B, [B,3/4^C3/4][B,/4C/4] | [B,^D] [^F,3/4B,3/4]B,/4 B, [B,3/4^C3/4][B,/4C/4] | [B,^D] B,3/4B,/4 B, [B,3/4^C3/4][B,/4C/4] | [B,^D] [^F,3/4B,3/4]B,/4 B, [B,3/4^C3/4][B,/4C/4] | [B,^D] B,3/4B,/4 B, [B,3/4^C3/4][B,/4C/4] | [B,^D] [^F,3/4B,3/4]B,/4 B, [B,3/4^C3/4][B,/4C/4] | [B,^D] B,3/4B,/4 B, [B,3/4^C3/4][B,/4C/4] | [B,^D] [^F,3/4B,3/4]B,/4 B, [B,3/4^C3/4][B,/4C/4] | [B,^D] B,3/4B,/4 B, [B,3/4^C3/4][B,/4C/4] | [B,^D] [^F,3/4B,3/4]B,/4 B, [B,3/4^C3/4][B,/4C/4] | [B,^D] B,3/4B,/4 B, [B,3/4^C3/4][B,/4C/4] | [B,^D] [^F,3/4B,3/4]B,/4 B, [B,3/4^C3/4][B,/4C/4] | [B,^D] B,3/4B,/4 B, [B,3/4^C3/4][B,/4C/4] | [B,^D] [^F,3/4B,3/4]B,/4 B, [B,3/4^C3/4][B,/4C/4] | [B,^D] B,3/4B,/4 B, [B,3/4^C3/4][B,/4C/4] | [B,^D] [^F,3/4B,3/4]B,/4 B, [B,3/4^C3/4][B,/4C/4] | [B,^D] B,3/4B,/4 B, [B,3/4^C3/4][B,/4C/4] | [B,^D] [^F,3/4B,3/4]B,/4 B, [B,3/4^C3/4][B,/4C/4] | [B,^D] B,3/4B,/4 B, [B,3/4^C3/4][B,/4C/4] | [B,^D] [^F,3/4B,3/4]B,/4 B, [B,3/4^C3/4][B,/4C/4] | [B,^D] B,3/4B,/4 B, [B,3/4^C3/4][B,/4C/4] | [B,^D] [^F,3/4B,3/4]B,/4 B, [B,3/4^C3/4][B,/4C/4] | [B,^D] B,3/4B,/4 B, [B,3/4^C3/4][B,/4C/4] | [B,^D] [^F,3/4B,3/4]B,/4 B, [B,3/4^C3/4][B,/4C/4] | [B,^D] B,3/4B,/4 B, [B,3/4^C3/4][B,/4C/4] | [B,^D] [^F,3/4B,3/4]B,/4 B, [B,3/4^C3/4][B,/4C/4] | [B,^D] B,3/4B,/4 B, [B,3/4^C3/4][B,/4C/4] | [B,^D] [^F,3/4B,3/4]B,/4 B, [B,3/4^C3/4][B,/4C/4] | [B,^D] B,3/4B,/4 B, [B,3/4^C3/4][B,/4C/4] | [B,^D] [^F,3/4B,3/4]B,/4 B, [B,3/4^C3/4][B,/4C/4] | [B,^D] B,3/4B,/4 B, [B,3/4^C3/4][B,/4C/4] | [B,^D] [^F,3/4B,3/4]B,/4 B, [B,3/4^C3/4][B,/4C/4] | [B,^D] B,3/4B,/4 B, [B,3/4^C3/4][B,/4C/4] | [B,^D] [^F,3/4B,3/4]B,/4 B, [B,3/4^C3/4][B,/4C/4] | [B,^D] B,3/4B,/4 B, [B,3/4^C3/4][B,/4C/4] | [B,^D] [^F,3/4B,3/4]B,/4 B, [B,3/4^C3/4][B,/4C/4] | [B,^D] B,3/4B,/4 B, [B,3/4^C3/4][B,/4C/4] | [B,^D] [^F,3/4B,3/4]B,/4 B, [B,3/4^C3/4][B,/4C/4] | [B,^D] B,3/4B,/4 B, [B,3/4^C3/4][B,/4C/4] | [B,^D] [^F,3/4B,3/4]B,/4 B, [B,3/4^C3/4][B,/4C/4] | [B,^D] B,3/4B,/4 B, [B,3/4^C3/4][B,/4C/4] | [B,^D]z3|]
[V: P12]  z4 | [M: 4/4]  [B,,,^A,,] [^C,,3/4^F,,3/4]F,,/4 [B,,,A,,] [C,,3/4F,,3/4]F,,/4 | [B,,,^A,,] [^C,,3/4^F,,3/4]F,,/4 [B,,,A,,] [C,,3/4F,,3/4]F,,/4 | [B,,,^A,,] [^C,,3/4^F,,3/4]F,,/4 [B,,,A,,] [C,,3/4F,,3/4]F,,/4 | [B,,,^A,,] [^C,,3/4^F,,3/4]F,,/4 [B,,,A,,] [C,,3/4F,,3/4]F,,/4 | [B,,,^A,,] [^C,,3/4^F,,3/4]F,,/4 [B,,,A,,] [C,,3/4F,,3/4]F,,/4 | [B,,,^A,,] [^C,,3/4^F,,3/4]F,,/4 [B,,,A,,] [C,,3/4F,,3/4]F,,/4 | [B,,,^A,,] [^C,,3/4^F,,3/4]F,,/4 [B,,,A,,] [C,,3/4F,,3/4]F,,/4 | [B,,,^A,,] [^C,,3/4^F,,3/4]F,,/4 [B,,,A,,] [C,,3/4F,,3/4]F,,/4 | [B,,,^A,,] [^C,,3/4^F,,3/4]F,,/4 [B,,,A,,] [C,,3/4F,,3/4]F,,/4 | [B,,,^A,,] [^C,,3/4^F,,3/4]F,,/4 [B,,,A,,] [C,,3/4F,,3/4]F,,/4 | [B,,,^A,,] [^C,,3/4^F,,3/4]F,,/4 [B,,,A,,] [C,,3/4F,,3/4]F,,/4 | [B,,,^A,,] [^C,,3/4^F,,3/4]F,,/4 [B,,,A,,] [C,,3/4F,,3/4]F,,/4 | [B,,,^A,,] [^C,,3/4^F,,3/4]F,,/4 [B,,,A,,] [C,,3/4F,,3/4]F,,/4 | [B,,,^A,,] [^C,,3/4^F,,3/4]F,,/4 [B,,,A,,] [C,,3/4F,,3/4]F,,/4 | [B,,,^A,,] [^C,,3/4^F,,3/4]F,,/4 [B,,,A,,] [C,,3/4F,,3/4]F,,/4 | [B,,,^A,,] [^C,,3/4^F,,3/4]F,,/4 [B,,,A,,] [C,,3/4F,,3/4]F,,/4 | [B,,,^A,,] [^C,,3/4^F,,3/4]F,,/4 [B,,,A,,] [C,,3/4F,,3/4]F,,/4 | [B,,,^A,,] [^C,,3/4^F,,3/4]F,,/4 [B,,,A,,] [C,,3/4F,,3/4]F,,/4 | [B,,,^A,,] [^C,,3/4^F,,3/4]F,,/4 [B,,,A,,] [C,,3/4F,,3/4]F,,/4 | [B,,,^A,,] [^C,,3/4^F,,3/4]F,,/4 [B,,,A,,] [C,,3/4F,,3/4]F,,/4 | [B,,,^A,,] [^C,,3/4^F,,3/4]F,,/4 [B,,,A,,] [C,,3/4F,,3/4]F,,/4 | [B,,,^A,,] [^C,,3/4^F,,3/4]F,,/4 [B,,,A,,] [C,,3/4F,,3/4]F,,/4 | [B,,,^A,,] [^C,,3/4^F,,3/4]F,,/4 [B,,,A,,] [C,,3/4F,,3/4]F,,/4 | [B,,,^A,,] [^C,,3/4^F,,3/4]F,,/4 [B,,,A,,] [C,,3/4F,,3/4]F,,/4 | [B,,,^A,,] [^C,,3/4^F,,3/4]F,,/4 [B,,,A,,] [C,,3/4F,,3/4]F,,/4 | [B,,,^A,,] [^C,,3/4^F,,3/4]F,,/4 [B,,,A,,] [C,,3/4F,,3/4]F,,/4 | [B,,,^A,,] [^C,,3/4^F,,3/4]F,,/4 [B,,,A,,] [C,,3/4F,,3/4]F,,/4 | [B,,,^A,,] [^C,,3/4^F,,3/4]F,,/4 [B,,,A,,] [C,,3/4F,,3/4]F,,/4 | [B,,,^A,,] [^C,,3/4^F,,3/4]F,,/4 [B,,,A,,] [C,,3/4F,,3/4]F,,/4 | [B,,,^A,,] [^C,,3/4^F,,3/4]F,,/4 [B,,,A,,] [C,,3/4F,,3/4]F,,/4 | [B,,,^A,,] [^C,,3/4^F,,3/4]F,,/4 [B,,,A,,] [C,,3/4F,,3/4]F,,/4 | [B,,,^A,,] [^C,,3/4^F,,3/4]F,,/4 [B,,,A,,] [C,,3/4F,,3/4]F,,/4 | [B,,,^A,,] [^C,,3/4^F,,3/4]F,,/4 [B,,,A,,] [C,,3/4F,,3/4]F,,/4 | [B,,,^A,,] [^C,,3/4^F,,3/4]F,,/4 [B,,,A,,] [C,,3/4F,,3/4]F,,/4 | [B,,,^A,,] [^C,,3/4^F,,3/4]F,,/4 [B,,,A,,] [C,,3/4F,,3/4]F,,/4 | [B,,,^A,,] [^C,,3/4^F,,3/4]F,,/4 [B,,,A,,] [C,,3/4F,,3/4]F,,/4 | [B,,,^A,,] [^C,,3/4^F,,3/4]F,,/4 [B,,,A,,] [C,,3/4F,,3/4]F,,/4 | [B,,,^A,,] [^C,,3/4^F,,3/4]F,,/4 [B,,,A,,] [C,,3/4F,,3/4]F,,/4 | [B,,,^A,,] [^C,,3/4^F,,3/4]F,,/4 [B,,,A,,] [C,,3/4F,,3/4]F,,/4 | [B,,,^A,,] [^C,,3/4^F,,3/4]F,,/4 [B,,,A,,] [C,,3/4F,,3/4]F,,/4 | [B,,,^A,,] [^C,,3/4^F,,3/4]F,,/4 [B,,,A,,] [C,,3/4F,,3/4]F,,/4 | [B,,,^A,,] [^C,,3/4^F,,3/4]F,,/4 [B,,,A,,] [C,,3/4F,,3/4]F,,/4 | [B,,,^A,,] [^C,,3/4^F,,3/4]F,,/4 [B,,,A,,] [C,,3/4F,,3/4]F,,/4 | [B,,,^A,,] [^C,,3/4^F,,3/4]F,,/4 [B,,,A,,] [C,,3/4F,,3/4]F,,/4 | [B,,,^A,,] [^C,,3/4^F,,3/4]F,,/4 [B,,,A,,] [C,,3/4F,,3/4]F,,/4 | [B,,,^A,,] [^C,,3/4^F,,3/4]F,,/4 [B,,,A,,] [C,,3/4F,,3/4]F,,/4 | [B,,,^A,,] [^C,,3/4^F,,3/4]F,,/4 [B,,,A,,] [C,,3/4F,,3/4]F,,/4 | [B,,,^A,,] [^C,,3/4^F,,3/4]F,,/4 [B,,,A,,] [C,,3/4F,,3/4]F,,/4 | [B,,,^A,,] [^C,,3/4^F,,3/4]F,,/4 [B,,,A,,] [C,,3/4F,,3/4]F,,/4 | [B,,,^A,,] [^C,,3/4^F,,3/4]F,,/4 [B,,,A,,] [B,,,E,,^G,,] | B,,, [B,,,^D,,E,,^G,,] B,,, [B,,,E,,G,,] | B,,, [B,,,E,,^G,,] B,,, [B,,,E,,G,,] | B,,, [B,,,^D,,E,,^G,,] B,,, [B,,,E,,G,,] | B,,, [B,,,E,,^G,,] B,,, [B,,,E,,G,,] | B,,, [B,,,^D,,E,,^G,,] B,,, [B,,,E,,G,,] | B,,, [B,,,E,,^G,,] B,,, [B,,,E,,G,,] | B,,, [B,,,^D,,E,,^G,,] B,,, [B,,,E,,G,,] | B,,, [B,,,E,,^G,,] B,,, [B,,,E,,G,,] | B,,, [B,,,^D,,E,,^G,,] B,,, [B,,,E,,G,,] | B,,, [B,,,E,,^G,,] B,,, [B,,,E,,G,,] | B,,, [B,,,^D,,E,,^G,,] B,,, [B,,,E,,G,,] | B,,, [B,,,E,,^G,,] B,,, [B,,,E,,G,,] | B,,, [B,,,^D,,E,,^G,,] B,,, [B,,,E,,G,,] | B,,, [B,,,E,,^G,,] B,,, [B,,,E,,G,,] | B,,, [B,,,^D,,E,,^G,,] B,,, [B,,,E,,G,,] | B,,, [B,,,E,,^G,,] B,,, [B,,,E,,G,,] | B,,, [B,,,^D,,E,,^G,,] B,,, [B,,,E,,G,,] | B,,, [B,,,E,,^G,,] B,,, [B,,,E,,G,,] | B,,, [B,,,^D,,E,,^G,,] B,,, [B,,,E,,G,,] | B,,, [B,,,E,,^G,,] B,,, [B,,,E,,G,,] | B,,, [B,,,^D,,E,,^G,,] B,,, [B,,,E,,G,,] | B,,, [B,,,E,,^G,,] B,,, [B,,,E,,G,,] | B,,, [B,,,^D,,E,,^G,,] B,,, [B,,,E,,G,,] | B,,, [B,,,E,,^G,,] B,,, [B,,,E,,G,,] | B,,, [B,,,^D,,E,,^G,,] B,,, [B,,,E,,G,,] | B,,, [B,,,E,,^G,,] B,,,3/4E,,/4 [B,,,3/4E,,3/4G,,3/4]E,,/4 | B,,, [B,,,^D,,E,,^G,,] B,,, [B,,,E,,G,,] | B,,, [B,,,E,,^G,,] B,,, [B,,,E,,G,,] | B,,, [B,,,^D,,E,,^G,,] B,,, [B,,,E,,G,,] | B,,, [B,,,E,,^G,,] B,,, [B,,,E,,G,,] | B,,, [B,,,^D,,E,,^G,,] B,,, [B,,,E,,G,,] | B,,, [B,,,E,,^G,,] B,,, [B,,,E,,G,,] | B,,, [B,,,^D,,E,,^G,,] B,,, [B,,,E,,G,,] | B,,, [B,,,E,,^G,,] B,,, [B,,,E,,G,,] | B,,, [B,,,^D,,E,,^G,,] B,,, [B,,,E,,G,,] | B,,, [B,,,E,,^G,,] B,,, [B,,,E,,G,,] | B,,, [B,,,^D,,E,,^G,,] B,,, [B,,,E,,G,,] | B,,, [B,,,E,,^G,,] B,,, [B,,,E,,G,,] | B,,, [B,,,^D,,E,,^G,,] B,,, [B,,,E,,G,,] | B,,, [B,,,E,,^G,,] B,,, [B,,,E,,G,,] | B,,, [B,,,^D,,E,,^G,,] B,,, [B,,,E,,G,,] | B,,, [B,,,E,,^G,,] B,,, [B,,,E,,G,,] | B,,, [B,,,^D,,E,,^G,,] B,,, [B,,,E,,G,,] | B,,, [B,,,E,,^G,,] B,,, [B,,,E,,G,,] | B,,, [B,,,^D,,E,,^G,,] B,,, [B,,,E,,G,,] | B,,, [B,,,E,,^G,,] B,,, [B,,,E,,G,,] | B,,, [B,,,^D,,E,,^G,,] B,,, [B,,,E,,G,,] | B,,, [B,,,E,,^G,,] B,,, [B,,,E,,G,,] | B,,, [B,,,^D,,E,,^G,,] B,,, [B,,,E,,G,,] | B,,, [B,,,E,,^G,,] B,,, [B,,,E,,G,,] | B,,, [B,,,^D,,E,,^G,,] B,,, [B,,,E,,G,,] | B,,, [B,,,E,,^G,,] B,,, [B,,,E,,G,,] | B,,, [B,,,^D,,E,,^G,,] B,,, [B,,,E,,G,,] | B,,, [B,,,E,,^G,,] B,,, [B,,,E,,G,,] | B,,,z3|]
[V: P13]  z4 | [M: 4/4]  [G4-c4-e4-] | [G4c4e4] | [G4-c4-e4-] | [G3c3e3]z3/4 [d/4-f/4-] | [d3/f3/] [d/4f/4]a/4- a3/ a3/8[G/8-d/8-] | [G/d/]B/- B3/4B/8g/8- g3/ g3/8[c/8-e/8-] | [c3e3] [c3/4e3/4]A/4- | A3 A3/4[d/4-f/4-] | [d3/f3/] [d/8f/8]a3/8- a3/ a/4^g/8e/8- | e2 b2 | [G4-c4-e4-] | [G3c3e3]z3/4 [e/4-g/4-] | [e3/g3/] [e/4g/4]b/4- b3/ b/4[f/4-a/4-] | [f3a3]z/4 ^g/-g/8[d/8-^f/8-a/8-] | [d4^f4a4] | [d3^f3a3] [d3/4f3/4a3/4][d/8f/8a/8][=f/8-a/8-] | [f3a3]z | [G/8d/8]B3/4-B/8 B3/4B/8g/8- g2 |z/8 [c3/4-e3/4-][c/8e/8] [c3e3] | [c3e3]z3/4z/8 [e/8-g/8-] | [e2g2] bz | [G4-c4-e4-] | [G4c4e4] | [G3c3e3] [G3/4c3/4e3/4][G/8c/8e/8][B/8-d/8-] | [B3/d3/] [B3/8d3/8]f/8- f2 | f4 | f4 | f3 f3/4f/8G/8- | G3/ G3/8[c/8-e/8-] [c2e2] | [c3e3]z3/4z/8 d/8- | d3/ d/4^f/8a/8- a2 | a3 a3/4a/8[g/8-b/8-] | [g4b4] | [g3b3]z | [G4-c4-e4-] | [G3c3e3]z3/4z/8 [e/8-g/8-] | [e2g2] b3/- b3/8a/8- | a3z3/4z/8 [G/8-c/8-e/8-] | [G4c4e4] | [G3c3e3]z3/4z/8 [f/8-a/8-] | [f4a4] | [f4a4] | [f3/a3/] [f/4a/4]f/8a/8- a2 | a3z | [G/8e/8]c3/4-c/8 c3 | c3 c3/4c/8[G/8-c/8-e/8-] | [G3c3e3]z | [f4a4] | g2 b2- | bz3 | z4 | g4- | g3 g3/4[d/4-f/4-a/4-] | [d3f3a3]z3/4z/8 [G/8d/8] | B3/- B3/8g/8- g3/ g3/8e/8 | c3- c3/4c/8A/8- | A3 A3/4A/8d/8- | d3 d3/4d/8[^g/8-b/8-] | [^g/8b/8]e3/4-e/8 e2 e3/4e/8[=G/8-c/8-e/8-] | [G4c4e4] | [G3c3e3] [G3/4c3/4e3/4][G/8c/8e/8][e/8-g/8-] | [e3/g3/] [e/4g/4]b/4- b3/ b3/8[f/8-a/8-] | [f3a3]z3/4z/8 [d/8-^f/8-a/8-] | [d4^f4a4] | [d3^f3a3] [d3/4f3/4a3/4][d/8f/8a/8][=f/8a/8] | bz3 | [g3-b3-] [g3/4b3/4][g/8b/8]e/8 | [G4-c4-] | [G3c3]z3/4z/8 [e/8-g/8-] | [e3/g3/] [e3/8g3/8]b/8- b3/ b3/8c/8 | [G3-e3-] [G3/4e3/4][G/4-c/4-e/4-] | [G3c3e3] [G3/4c3/4e3/4][G/4-e/4-] | [G3e3] [G3/4e3/4][G/8e/8]d/8 | B4 | f3- f3/4f/8G/8 | d4- | d4 | d3 d3/4[c/4-e/4-] | [c4e4] | d3/- d/4[^f/4-a/4-] [f2a2] | [^f3a3] [f3/4a3/4][f/8a/8][g/8-b/8-] | [g4b4] | d/8[G3/4-B3/4-][G/8B/8] [G3/4B3/4][G/8B/8]g/8- g3/ g3/8[c/8-e/8-] | [c4e4] | [c3e3]z3/4z/8 [e/8-g/8-] | [e2g2] b3/- b3/8[A/8-c/8-e/8-] | [A3c3e3] [A3/4c3/4e3/4][A/8c/8e/8][c/8-e/8-] | [c3/e3/] [c3/8e3/8]g/8- g3/ g3/8[c/8-e/8-] | [c3e3]z3/4z/8 f/8 | a4- | a4 | a3/ a/4[f/4-a/4-] [f2a2] | [f4a4] | [f3/a3/] [f3/8a3/8][f/8-a/8-] [f2a2] | [f3/a3/] [f/4a/4]g/8b/8- b2 | bz [c2-e2-g2-] | [c4e4g4] | [c3/e3/g3/] [c3/8e3/8g3/8][c/8-e/8-g/8-] [c2e2g2] | [ceg]z3/4z/8 [f/8-a/8-] [f2a2] | [f3a3]z/4 g3/4 | z4 | z4 | z4 | z4 | z4|]
[V: P14]  z4 | [M: 4/4]  z4|]

